!!!OTL: EWIGER GOTT ACH VATER MEIN
!!!ARE: Europa, Mitteleuropa, Deutschland
!!!SCT: E0937
!!!YEM: Copyright 1995, estate of Helmut Schaffrath.
**kern
*ICvox
*Ivox
*M3/4
*k[b-]
*F:
{4f
=1
2f
4f
=2
4.e
8f
4g
=3
4f
2d
=4
2c}
{4f
=5
4f
2d
=6
2c}
{4c
=7
2g
4g
=8
4a
4a
4g
=9
4f
4e
4d
=10
2e
4r}
=11
{4c
4d
4e
=12
2f
4r
=13
4c
4d
4e
=14
2f}
==
!!!AGN: Tanz - Lied, Reigen, geistlich
!!!ONB: ESAC (Essen Associative Code) Database: ERK2
!!!AMT: simple triple
!!!AIN: vox
!!!EED: Helmut Schaffrath
!!!EEV: 1.0
*-
